public/icons/message.svg

<?xml version="1.0" encoding="utf-8"?><!-- Uploaded to: SVG Repo, www.svgrepo.com, Generator: SVG Repo Mixer Tools -->
<svg width="800px" height="800px" viewBox="0 0 24 24" fill="none" xmlns="http://www.w3.org/2000/svg">
<path opacity="0.4" d="M18.28 9.75982V12.8998C18.28 13.0998 18.27 13.2998 18.25 13.4898C18.07 15.6098 16.82 16.6698 14.52 16.6698H14.21C14.01 16.6698 13.82 16.7598 13.71 16.9198L12.77 18.1798C12.35 18.7398 11.68 18.7398 11.26 18.1798L10.32 16.9198C10.22 16.7898 9.99001 16.6698 9.82001 16.6698H9.51001C7.00001 16.6698 5.75 16.0498 5.75 12.9098V9.7698C5.75 7.4698 6.80999 6.21982 8.92999 6.03982C9.11999 6.01982 9.31999 6.00982 9.51999 6.00982H14.55C17.02 5.99982 18.28 7.25982 18.28 9.75982Z" stroke="#292D32" stroke-width="1.5" stroke-miterlimit="10" stroke-linecap="round" stroke-linejoin="round"/>
<path d="M9 22H15C20 22 22 20 22 15V9C22 4 20 2 15 2H9C4 2 2 4 2 9V15C2 20 4 22 9 22Z" stroke="#292D32" stroke-width="1.5" stroke-linecap="round" stroke-linejoin="round"/>
</svg>

<svg xmlns="http://www.w3.org/2000/svg" width="800" height="800" fill="none" viewBox="0 0 24 24">
  <path stroke="#292D32" stroke-linecap="round" stroke-linejoin="round" stroke-miterlimit="10" stroke-width="1.5" d="M18.28 9.76v3.14c0 .2-.01.4-.03.59-.18 2.12-1.43 3.18-3.73 3.18h-.31c-.2 0-.39.09-.5.25l-.94 1.26c-.42.56-1.09.56-1.51 0l-.94-1.26a.73.73 0 0 0-.5-.25h-.31c-2.51 0-3.76-.62-3.76-3.76V9.77c0-2.3 1.06-3.55 3.18-3.73.19-.02.39-.03.59-.03h5.03c2.47-.01 3.73 1.25 3.73 3.75" opacity=".4"/>
  <path stroke="#292D32" stroke-linecap="round" stroke-linejoin="round" stroke-width="1.5" d="M9 22h6c5 0 7-2 7-7V9c0-5-2-7-7-7H9C4 2 2 4 2 9v6c0 5 2 7 7 7"/>
</svg>
